; generated by PrusaSlicer 2.6.1+MacOS-arm64 on 2023-09-26 at 18:18:06 UTC


;
;
; 

; external perimeters extrusion width = 0.45mm
; perimeters extrusion width = 0.45mm
; infill extrusion width = 0.45mm
; solid infill extrusion width = 0.45mm
; top infill extrusion width = 0.40mm
; first layer extrusion width = 0.40mm

M73 P0 R85
M73 Q0 S86
M201 X1000 Y1000 Z200 E5000 ; sets maximum accelerations, mm/sec^2
M203 X200 Y200 Z12 E120 ; sets maximum feedrates, mm / sec
M204 S1250 T1250 ; sets acceleration (S) and retract acceleration (R), mm/sec^2
M205 X8.00 Y8.00 Z0.40 E4.50 ; sets the jerk limits, mm/sec
M205 S0 T0 ; sets the minimum extruding and travel feed rate, mm/sec
;TYPE:Custom
M862.3 P "MK3S" ; printer model check
M862.1 P0.4 ; nozzle diameter check
M115 U3.13.1 ; tell printer latest fw version
G90 ; use absolute coordinates
M83 ; extruder relative mode
M104 S215 ; set extruder temp
M140 S70 ; set bed temp
M190 S70 ; wait for bed temp
M109 S215 ; wait for extruder temp
G28 W ; home all without mesh bed level
G80 ; mesh bed leveling

G1 Z0.2 F720
G1 Y-3 F1000 ; go outside print area
G92 E0
G1 X60 E9 F1000 ; intro line
G1 X100 E12.5 F1000 ; intro line

G92 E0
M221 S95

; Don't change E values below. Excessive value can damage the printer.

G21 ; set units to millimeters
G90 ; use absolute coordinates
M83 ; use relative distances for extrusion
M900 K0.05 ; Filament gcode LA 1.5
M900 K30 ; Filament gcode LA 1.0
M107
;LAYER_CHANGE
;Z:0.2
;HEIGHT:0.2
;BEFORE_LAYER_CHANGE
G92 E0.0
;0.2
M221 S120;Changes the flow to 120% only for the first layer

G1 E-.8 F2100
G1 Z.4 F720
;AFTER_LAYER_CHANGE
;0.2
G1 X105.751 Y71.955 F10800
G1 Z.2 F720
G1 E.8 F2100
M204 S800
;TYPE:Skirt/Brim
;WIDTH:0.4
G1 F1200
G1 X106.593 Y71.115 E.03531
G1 X107.623 Y70.479 E.03594
G1 X108.738 Y70.088 E.03508
G1 X124.35 Y68.427 E.46616
G1 X125.206 Y68.392 E.02544
G1 X141.065 Y70.044 E.47342
G1 X142.174 Y70.387 E.03447
G1 X143.075 Y70.874 E.03041
G1 X143.882 Y71.541 E.03109
G1 X144.566 Y72.397 E.03253
G1 X144.925 Y73.053 E.0222
G1 X145.22 Y73.84 E.02495
G1 X145.403 Y74.699 E.02608
G1 X145.457 Y75.489 E.02351
G1 X145.457 Y98 E.66838
G1 X144.767 Y99.667 E.05357
G1 X141.667 Y102.767 E.13017
G1 X140 Y103.457 E.05357
G1 X110 Y103.457 E.89074
G1 X108.333 Y102.767 E.05357
G1 X105.233 Y99.667 E.13017
G1 X104.543 Y98 E.05357
G1 X104.545 Y75.386 E.67144
G1 X104.689 Y74.195 E.03562
G1 X105.113 Y72.975 E.03835
G1 X105.72 Y72.006 E.03395
M204 S1000
; printing object Back v243 id:0 copy 0
;WIPE_START
G1 F8640
G1 X106.593 Y71.115 E-.28803
G1 X107.623 Y70.479 E-.27952
G1 X108.573 Y70.146 E-.23245
;WIPE_END
G1 Z.6 F720
G1 X127.661 Y73.044 F10800
G1 Z.2 F720
G1 E.8 F2100
M204 S800
;TYPE:Perimeter
;WIDTH:0.399999
G1 F1200
G1 X139.888 Y73.044 E.36303
G1 X140.479 Y73.106 E.01764
G1 X140.989 Y73.27 E.01591
G1 X141.415 Y73.515 E.01459
G1 X141.767 Y73.841 E.01424
G1 X142.104 Y74.376 E.01877
G1 X142.286 Y74.982 E.01879
G1 X142.343 Y75.59 E.01813
G1 X142.343 Y97.687 E.65609
G1 X139.687 Y100.343 E.11152
G1 X110.313 Y100.343 E.87215
G1 X107.657 Y97.687 E.11152
G1 X107.657 Y75.523 E.65808
G1 X107.737 Y74.841 E.02039
M73 Q0 S85
G1 X107.881 Y74.429 E.01296
G1 X108.22 Y73.86 E.01967
G1 X108.606 Y73.501 E.01565
G1 X109.018 Y73.268 E.01405
G1 X109.666 Y73.079 E.02004
G1 X110.1 Y73.044 E.01293
G1 X121.898 Y73.044 E.3503
G1 X122.489 Y73.03 E.01755
G1 X122.331 Y73.601 E.01759
G1 X122.3 Y74.2 E.01781
G1 X122.398 Y74.791 E.01779
G1 X122.55 Y75.204 E.01307
G1 X122.845 Y75.698 E.01708
G1 X123.184 Y76.074 E.01503
G1 X123.647 Y76.413 E.01704
G1 X124.045 Y76.604 E.01311
G1 X124.6 Y76.75 E.01704
G1 X125.172 Y76.776 E.017
G1 X125.67 Y76.695 E.01498
G1 X126.087 Y76.549 E.01312
G1 X126.583 Y76.262 E.01701
G1 X126.987 Y75.905 E.01601
G1 X127.309 Y75.469 E.01609
G1 X127.473 Y75.156 E.01049
G1 X127.641 Y74.635 E.01625
G1 X127.704 Y74.041 E.01774
G1 X127.639 Y73.446 E.01777
G1 X127.512 Y73.031 E.01289
G1 X127.601 Y73.041 E.00266
M204 S1000
G1 X127.465 Y72.629 F10800
M204 S800
;TYPE:External perimeter
;WIDTH:0.446363
G1 F1200
G1 X127.626 Y72.687 E.00574
;WIDTH:0.399999
G1 X139.906 Y72.687 E.36461
G1 X140.553 Y72.754 E.01931
G1 X141.134 Y72.942 E.01813
G1 X141.628 Y73.226 E.01692
G1 X141.904 Y73.481 E.01116
G1 X142.225 Y73.855 E.01463
G1 X142.5 Y74.419 E.01863
G1 X142.635 Y74.91 E.01512
G1 X142.7 Y75.59 E.02028
G1 X142.7 Y97.835 E.66048
G1 X139.835 Y100.7 E.1203
G1 X110.165 Y100.7 E.88094
G1 X107.3 Y97.835 E.1203
G1 X107.3 Y75.676 E.65793
G1 X107.34 Y75.158 E.01543
G1 X107.434 Y74.602 E.01674
G1 X107.646 Y74.075 E.01687
G1 X107.947 Y73.626 E.01605
G1 X108.394 Y73.211 E.01811
G1 X108.879 Y72.937 E.01654
G1 X109.601 Y72.726 E.02233
G1 X110.086 Y72.687 E.01445
G1 X122.374 Y72.687 E.36485
;WIDTH:0.441931
G1 X122.533 Y72.628 E.00563
;WIDTH:0.465668
G1 X122.681 Y72.452 E.00808
;WIDTH:0.475336
G1 X122.989 Y72.05 E.01821
;WIDTH:0.480116
G1 X123.366 Y71.721 E.01819
G1 X123.871 Y71.44 E.02101
;WIDTH:0.480381
G1 X124.459 Y71.243 E.02256
;WIDTH:0.482679
G1 X125.128 Y71.193 E.02453
;WIDTH:0.482986
G1 X125.778 Y71.304 E.02413
G1 X125.992 Y71.386 E.00839
;WIDTH:0.472371
G1 X126.55 Y71.673 E.02241
;WIDTH:0.474151
G1 X127.032 Y72.077 E.02255
G1 X127.428 Y72.582 E.02301
M204 S1000
G1 X127.47 Y72.8 F10800
G1 X126.99 Y72.719
M204 S800
;WIDTH:0.466591
G1 F1200
G1 X127.09 Y72.951 E.0089
;WIDTH:0.433295
G1 X127.189 Y73.183 E.00819
;WIDTH:0.399999
G1 X127.285 Y73.492 E.00961
G1 X127.349 Y74.01 E.0155
G1 X127.3 Y74.53 E.01551
G1 X127.154 Y74.997 E.01453
G1 X127.021 Y75.259 E.00872
G1 X126.724 Y75.663 E.01489
G1 X126.324 Y76.012 E.01576
G1 X125.888 Y76.249 E.01473
G1 X125.612 Y76.342 E.00865
G1 X125.1 Y76.422 E.01539
G1 X124.591 Y76.389 E.01514
G1 X124.116 Y76.25 E.01469
G1 X123.854 Y76.122 E.00866
G1 X123.438 Y75.823 E.01521
G1 X123.088 Y75.428 E.01567
G1 X122.848 Y75.001 E.01454
G1 X122.749 Y74.725 E.00871
G1 X122.657 Y74.211 E.0155
G1 X122.678 Y73.689 E.01551
G1 X122.81 Y73.184 E.0155
;WIDTH:0.432834
G1 X122.914 Y72.945 E.00845
;WIDTH:0.465668
G1 X123.019 Y72.706 E.00918
;WIDTH:0.474421
G1 X123.332 Y72.316 E.01794
;WIDTH:0.480116
G1 X123.596 Y72.094 E.01254
G1 X124.012 Y71.847 E.01759
;WIDTH:0.480372
G1 X124.506 Y71.678 E.01899
;WIDTH:0.482679
G1 X125.078 Y71.629 E.02099
;WIDTH:0.482986
G1 X125.691 Y71.735 E.02276
G1 X126.238 Y71.978 E.0219
;WIDTH:0.478373
G1 X126.657 Y72.309 E.01933
;WIDTH:0.472031
G1 X126.952 Y72.673 E.01672
M204 S1000
;WIPE_START
G1 F8640
G1 X127.09 Y72.951 E-.07166
G1 X127.189 Y73.183 E-.05824
G1 X127.285 Y73.492 E-.07471
G1 X127.349 Y74.01 E-.12052
G1 X127.3 Y74.53 E-.1206
G1 X127.154 Y74.997 E-.11298
G1 X127.021 Y75.259 E-.06784
G1 X126.724 Y75.663 E-.11578
G1 X126.536 Y75.827 E-.05767
;WIPE_END
G1 Z.6 F720
G1 X121.011 Y81.585 F10800
G1 Z.2 F720
G1 E.8 F2100
M204 S800
;TYPE:Perimeter
;WIDTH:0.399999
G1 F1200
G1 X120.998 Y81.641 E.00171
G1 X120.807 Y81.846 E.00832
G1 X120.683 Y81.904 E.00406
G1 X119.59 Y81.928 E.03246
G1 X111.844 Y81.928 E.22999
G1 X111.638 Y81.887 E.00624
G1 X111.416 Y81.714 E.00836
G1 X111.317 Y81.485 E.00741
G1 X111.309 Y79.472 E.05977
G1 X111.352 Y79.261 E.00639
G1 X111.463 Y79.096 E.0059
G1 X113.143 Y77.39 E.07109
G1 X113.378 Y77.251 E.00811
G1 X113.524 Y77.23 E.00438
G1 X118.843 Y77.23 E.15793
G1 X119.101 Y77.296 E.00791
G1 X119.733 Y77.907 E.0261
G1 X120.904 Y79.096 E.04955
G1 X121.038 Y79.325 E.00788
G1 X121.058 Y80.083 E.02251
G1 X121.058 Y81.392 E.03887
G1 X121.025 Y81.527 E.00413
M204 S1000
G1 X120.576 Y81.563 F10800
M204 S800
;TYPE:External perimeter
G1 F1200
G1 X111.844 Y81.571 E.25926
G1 X111.701 Y81.5 E.00474
G1 X111.666 Y81.392 E.00337
G1 X111.666 Y79.472 E.05701
G1 X111.717 Y79.347 E.00401
G1 X113.397 Y77.641 E.07109
G1 X113.524 Y77.587 E.0041
G1 X118.843 Y77.587 E.15793
G1 X118.97 Y77.641 E.0041
G1 X120.65 Y79.347 E.07109
G1 X120.701 Y79.472 E.00401
G1 X120.701 Y81.392 E.05701
G1 X120.628 Y81.533 E.00471
M204 S1000
G1 X120.568 Y81.963 F10800
;WIPE_START
G1 F8640
G1 X117.163 Y81.548 E-.8
;WIPE_END
G1 Z.6 F720
G1 X125.666 Y93.06 F10800
G1 Z.2 F720
G1 E.8 F2100
M204 S800
;TYPE:Perimeter
G1 F1200
G1 X126.168 Y93.235 E.01578
G1 X126.674 Y93.549 E.01768
G1 X127.098 Y93.967 E.01768
G1 X127.42 Y94.467 E.01766
G1 X127.626 Y95.025 E.01766
G1 X127.704 Y95.615 E.01767
G1 X127.652 Y96.208 E.01767
G1 X127.471 Y96.775 E.01767
G1 X127.17 Y97.288 E.01766
G1 X126.765 Y97.724 E.01767
G1 X126.274 Y98.06 E.01767
G1 X125.721 Y98.281 E.01768
G1 X125.133 Y98.375 E.01768
G1 X124.539 Y98.339 E.01767
G1 X123.968 Y98.174 E.01765
G1 X123.446 Y97.888 E.01767
G1 X122.999 Y97.494 E.01769
G1 X122.65 Y97.013 E.01764
G1 X122.414 Y96.466 E.01769
G1 X122.303 Y95.882 E.01765
G1 X122.323 Y95.286 E.01771
G1 X122.464 Y94.735 E.01689
G1 X122.65 Y94.335 E.0131
G1 X122.957 Y93.897 E.01588
G1 X123.351 Y93.53 E.01599
G1 X123.86 Y93.221 E.01768
G1 X124.424 Y93.031 E.01767
G1 X124.99 Y92.97 E.0169
G1 X125.61 Y93.04 E.01853
M204 S1000
G1 X125.556 Y93.392 F10800
M204 S800
;TYPE:External perimeter
G1 F1200
G1 X126.043 Y93.569 E.01539
G1 X126.478 Y93.848 E.01534
G1 X126.842 Y94.215 E.01535
G1 X127.116 Y94.654 E.01536
G1 X127.288 Y95.141 E.01533
G1 X127.349 Y95.654 E.01534
G1 X127.297 Y96.169 E.01537
G1 X127.133 Y96.659 E.01534
G1 X126.866 Y97.101 E.01533
G1 X126.509 Y97.475 E.01535
G1 X126.078 Y97.761 E.01536
G1 X125.596 Y97.946 E.01533
G1 X125.084 Y98.022 E.01537
G1 X124.569 Y97.983 E.01533
G1 X124.074 Y97.833 E.01536
G1 X123.625 Y97.579 E.01532
G1 X123.241 Y97.232 E.01537
G1 X122.943 Y96.809 E.01536
G1 X122.745 Y96.332 E.01533
G1 X122.655 Y95.823 E.01535
G1 X122.68 Y95.306 E.01537
G1 X122.812 Y94.818 E.01501
G1 X122.943 Y94.539 E.00915
G1 X123.227 Y94.131 E.01476
G1 X123.608 Y93.78 E.01538
G1 X124.056 Y93.522 E.01535
G1 X124.55 Y93.367 E.01537
G1 X125.059 Y93.327 E.01516
G1 X125.497 Y93.384 E.01311
M204 S1000
G1 X125.833 Y93.103 F10800
;WIPE_START
G1 F8640
G1 X126.043 Y93.569 E-.13311
G1 X126.478 Y93.848 E-.11933
G1 X126.842 Y94.215 E-.11935
G1 X127.116 Y94.654 E-.11949
G1 X127.288 Y95.141 E-.11926
G1 X127.349 Y95.654 E-.11929
G1 X127.318 Y95.956 E-.07017
;WIPE_END
G1 Z.6 F720
G1 X142.044 Y74.473 F10800
G1 Z.2 F720
G1 E.8 F2100
M204 S800
;TYPE:Solid infill
;WIDTH:0.401146
G1 F1200
G1 X141.266 Y73.718 E.03229
G1 X140.887 Y73.5 E.01302
G1 X140.415 Y73.35 E.01475
G1 X142.026 Y74.961 E.06786
G1 X142.072 Y75.181 E.00669
G1 X142.093 Y75.535 E.01056
G1 X139.852 Y73.294 E.0944
G1 X139.345 Y73.294 E.0151
G1 X142.093 Y76.041 E.11574
G1 X142.093 Y76.548 E.0151
G1 X138.838 Y73.294 E.13709
G1 X138.332 Y73.294 E.01507
G1 X142.093 Y77.055 E.15843
G1 X142.093 Y77.561 E.01507
G1 X137.825 Y73.294 E.17977
G1 X137.319 Y73.294 E.01507
G1 X142.093 Y78.068 E.2011
G1 X142.093 Y78.575 E.0151
G1 X136.812 Y73.294 E.22246
G1 X136.305 Y73.294 E.0151
G1 X142.093 Y79.081 E.2438
G1 X142.093 Y79.588 E.0151
G1 X135.799 Y73.294 E.26513
G1 X135.292 Y73.294 E.0151
G1 X142.093 Y80.094 E.28647
G1 X142.093 Y80.601 E.0151
G1 X134.786 Y73.294 E.3078
G1 X134.279 Y73.294 E.0151
G1 X142.093 Y81.108 E.32916
G1 X142.093 Y81.614 E.01507
G1 X133.772 Y73.294 E.3505
G1 X133.266 Y73.294 E.01507
G1 X142.093 Y82.121 E.37183
G1 X142.093 Y82.627 E.01507
G1 X132.759 Y73.294 E.39317
G1 X132.253 Y73.294 E.01507
G1 X142.093 Y83.134 E.41451
G1 X142.093 Y83.641 E.0151
G1 X131.746 Y73.294 E.43586
G1 X131.239 Y73.294 E.0151
G1 X142.093 Y84.147 E.4572
G1 X142.093 Y84.654 E.0151
G1 X130.733 Y73.294 E.47854
G1 X130.226 Y73.294 E.0151
G1 X142.093 Y85.16 E.49987
G1 X142.093 Y85.667 E.0151
G1 X129.72 Y73.294 E.52121
G1 X129.213 Y73.294 E.0151
G1 X142.093 Y86.174 E.54257
G1 X142.093 Y86.68 E.01507
G1 X128.706 Y73.294 E.5639
G1 X128.2 Y73.294 E.01507
G1 X142.093 Y87.187 E.58524
G1 X142.093 Y87.693 E.01507
G1 X127.898 Y73.498 E.59796
G1 X127.95 Y73.896 E.01196
G1 X127.954 Y74.061 E.00492
G1 X142.093 Y88.2 E.5956
G1 X142.093 Y88.707 E.0151
G1 X127.913 Y74.527 E.59733
G1 X127.807 Y74.927 E.01233
M73 Q1 S85
G1 X142.093 Y89.213 E.60179
G1 X142.093 Y89.72 E.0151
M73 P1 R85
G1 X127.671 Y75.298 E.60752
G1 X127.499 Y75.633 E.01122
M73 P1 R84
G1 X142.093 Y90.227 E.61477
G1 X142.093 Y90.733 E.01507
G1 X127.283 Y75.923 E.62387
G1 X127.171 Y76.074 E.0056
G1 X127.04 Y76.186 E.00513
G1 X142.093 Y91.24 E.63412
G1 X142.093 Y91.746 E.01507
G1 X126.766 Y76.42 E.64562
G1 X126.63 Y76.536 E.00532
G1 X126.466 Y76.626 E.00557
G1 X142.093 Y92.253 E.65828
G1 X142.093 Y92.76 E.0151
G1 X126.135 Y76.801 E.67225
G1 X125.755 Y76.928 E.01193
G1 X142.093 Y93.266 E.68823
G1 X142.093 Y93.773 E.0151
G1 X125.324 Y77.004 E.70639
G1 X125.066 Y77.028 E.00772
G1 X124.823 Y77.01 E.00726
G1 X142.093 Y94.279 E.72747
G1 X142.093 Y94.786 E.0151
G1 X123.984 Y76.677 E.76283
M204 S1000
;WIPE_START
G1 F8640
G1 X126.434 Y79.127 E-.8
;WIPE_END
G1 Z.6 F720
G1 X122.278 Y73.451 F10800
G1 Z.2 F720
G1 E.8 F2100
M204 S800
G1 F1200
G1 X122.12 Y73.294 E.00663
G1 X121.614 Y73.294 E.01507
G1 X122.064 Y73.744 E.01896
G1 X122.053 Y74.24 E.01478
G1 X121.107 Y73.294 E.03985
G1 X120.601 Y73.294 E.01507
G1 X122.414 Y75.107 E.07637
M204 S1000
;WIPE_START
G1 F8640
G1 X120.601 Y73.294 E-.59203
G1 X121.107 Y73.294 E-.11684
G1 X121.386 Y73.573 E-.09113
;WIPE_END
G1 Z.6 F720
G1 X119.933 Y73.133 F10800
G1 Z.2 F720
G1 E.8 F2100
M204 S800
G1 F1200
G1 X142.093 Y95.293 E.93348
G1 X142.093 Y95.799 E.01507
G1 X119.587 Y73.294 E.94804
G1 X119.081 Y73.294 E.01507
G1 X142.093 Y96.306 E.96937
G1 X142.093 Y96.812 E.01507
G1 X118.574 Y73.294 E.99071
G1 X118.068 Y73.294 E.01507
G1 X142.093 Y97.319 E1.01204
G1 X142.093 Y97.583 E.00786
G1 X141.972 Y97.704 E.0051
G1 X117.561 Y73.294 E1.02828
G1 X117.054 Y73.294 E.0151
G1 X141.719 Y97.958 E1.03898
G1 X141.465 Y98.211 E.01068
G1 X116.548 Y73.294 E1.04962
G1 X116.041 Y73.294 E.0151
M73 Q1 S84
G1 X141.212 Y98.464 E1.0603
G1 X140.959 Y98.718 E.01068
G1 X115.535 Y73.294 E1.07098
G1 X115.028 Y73.294 E.0151
G1 X118.715 Y76.981 E.15531
G1 X119.041 Y77.005 E.00974
G1 X119.222 Y77.077 E.0058
G1 X119.399 Y77.211 E.00661
G1 X121.085 Y78.924 E.07159
G1 X121.193 Y79.062 E.00522
G1 X121.258 Y79.194 E.00438
G1 X121.308 Y79.465 E.00821
G1 X121.308 Y79.574 E.00325
G1 X140.705 Y98.971 E.81709
G1 X140.452 Y99.224 E.01066
G1 X121.308 Y80.081 E.80641
G1 X121.308 Y80.587 E.01507
G1 X140.199 Y99.478 E.79578
G1 X139.945 Y99.731 E.01068
G1 X121.308 Y81.094 E.78508
G1 X121.308 Y81.397 E.00903
G1 X121.284 Y81.576 E.00538
G1 X139.692 Y99.984 E.77543
G1 X139.583 Y100.093 E.00459
G1 X139.294 Y100.093 E.00861
G1 X121.113 Y81.911 E.76589
G1 X120.94 Y82.059 E.00678
G1 X120.81 Y82.116 E.00423
G1 X138.788 Y100.093 E.7573
G1 X138.281 Y100.093 E.0151
G1 X120.366 Y82.178 E.75466
G1 X119.859 Y82.178 E.0151
G1 X137.774 Y100.093 E.75466
G1 X137.268 Y100.093 E.01507
G1 X119.353 Y82.178 E.75466
G1 X118.846 Y82.178 E.0151
G1 X136.761 Y100.093 E.75466
G1 X136.255 Y100.093 E.01507
G1 X118.34 Y82.178 E.75466
G1 X117.833 Y82.178 E.0151
G1 X135.748 Y100.093 E.75466
G1 X135.241 Y100.093 E.0151
G1 X117.326 Y82.178 E.75466
G1 X116.82 Y82.178 E.01507
G1 X134.735 Y100.093 E.75466
G1 X134.228 Y100.093 E.0151
M73 P2 R84
M73 Q2 S84
G1 X116.313 Y82.178 E.75466
G1 X115.807 Y82.178 E.01507
G1 X133.722 Y100.093 E.75466
G1 X133.215 Y100.093 E.0151
G1 X127.748 Y94.626 E.2303
G1 X127.675 Y94.411 E.00676
G1 X127.333 Y93.856 E.01942
G1 X126.941 Y93.447 E.01687
G1 X126.813 Y93.342 E.00493
G1 X126.346 Y93.041 E.01655
G1 X126.047 Y92.925 E.00955
G1 X115.3 Y82.178 E.45271
G1 X114.793 Y82.178 E.0151
G1 X125.37 Y92.755 E.44555
G1 X125.133 Y92.724 E.00712
G1 X124.841 Y92.733 E.0087
G1 X114.287 Y82.178 E.4446
G1 X113.78 Y82.178 E.0151
G1 X124.387 Y92.785 E.44682
G1 X124.002 Y92.906 E.01202
G1 X113.273 Y82.178 E.45193
G1 X112.767 Y82.178 E.01507
G1 X123.648 Y93.06 E.45838
G1 X123.327 Y93.245 E.01104
G1 X112.1 Y82.017 E.47295
M204 S1000
;WIPE_START
G1 F8640
G1 X114.55 Y84.467 E-.8
;WIPE_END
G1 Z.6 F720
G1 X118.37 Y77.142 F10800
G1 Z.2 F720
M73 P2 R83
G1 E.8 F2100
M204 S800
G1 F1200
G1 X114.521 Y73.294 E.16212
G1 X114.015 Y73.294 E.01507
G1 X117.704 Y76.983 E.1554
G1 X117.198 Y76.984 E.01507
G1 X113.508 Y73.294 E.15544
G1 X113.001 Y73.294 E.0151
G1 X116.693 Y76.985 E.1555
G1 X116.187 Y76.986 E.01507
G1 X112.495 Y73.294 E.15552
G1 X111.988 Y73.294 E.0151
G1 X115.681 Y76.987 E.15557
