; generated by PrusaSlicer 2.6.1+MacOS-arm64 on 2023-09-26 at 18:08:05 UTC


;
;
; 

; external perimeters extrusion width = 0.45mm
; perimeters extrusion width = 0.45mm
; infill extrusion width = 0.45mm
; solid infill extrusion width = 0.45mm
; top infill extrusion width = 0.40mm
; first layer extrusion width = 0.40mm

M73 P0 R82
M73 Q0 S83
M201 X1000 Y1000 Z200 E5000 ; sets maximum accelerations, mm/sec^2
M203 X200 Y200 Z12 E120 ; sets maximum feedrates, mm / sec
M204 S1250 T1250 ; sets acceleration (S) and retract acceleration (R), mm/sec^2
M205 X8.00 Y8.00 Z0.40 E4.50 ; sets the jerk limits, mm/sec
M205 S0 T0 ; sets the minimum extruding and travel feed rate, mm/sec
;TYPE:Custom
M862.3 P "MK3S" ; printer model check
M862.1 P0.4 ; nozzle diameter check
M115 U3.13.1 ; tell printer latest fw version
G90 ; use absolute coordinates
M83 ; extruder relative mode
M104 S205 ; set extruder temp
M140 S70 ; set bed temp
M190 S70 ; wait for bed temp
M109 S205 ; wait for extruder temp
G28 W ; home all without mesh bed level
G80 ; mesh bed leveling

G1 Z0.2 F720
G1 Y-3 F1000 ; go outside print area
G92 E0
G1 X60 E9 F1000 ; intro line
G1 X100 E12.5 F1000 ; intro line

G92 E0
M221 S95

; Don't change E values below. Excessive value can damage the printer.

G21 ; set units to millimeters
G90 ; use absolute coordinates
M83 ; use relative distances for extrusion
M900 K0.05 ; Filament gcode LA 1.5
M900 K30 ; Filament gcode LA 1.0
M107
;LAYER_CHANGE
;Z:0.2
;HEIGHT:0.2
;BEFORE_LAYER_CHANGE
G92 E0.0
;0.2
M221 S120;Changes the flow to 120% only for the first layer

G1 E-.8 F2100
G1 Z.4 F720
;AFTER_LAYER_CHANGE
;0.2
G1 X107.783 Y107.783 F10800
G1 Z.2 F720
G1 E.8 F2100
M204 S800
;TYPE:Skirt/Brim
;WIDTH:0.4
G1 F1200
G1 X108.333 Y107.233 E.02309
G1 X110 Y106.543 E.05357
G1 X140 Y106.543 E.89074
G1 X141.667 Y107.233 E.05357
G1 X144.767 Y110.333 E.13017
G1 X145.457 Y112 E.05357
G1 X145.451 Y141.997 E.89065
G1 X145.324 Y143.132 E.03391
G1 X145.034 Y144.118 E.03052
G1 X144.622 Y144.953 E.02765
G1 X144.023 Y145.756 E.02974
G1 X143.167 Y146.513 E.03393
G1 X142.288 Y147.001 E.02985
G1 X141.16 Y147.34 E.03497
G1 X140.016 Y147.44 E.0341
G1 X109.717 Y147.434 E.89962
G1 X108.745 Y147.322 E.02905
G1 X107.852 Y147.056 E.02767
G1 X107.097 Y146.683 E.025
G1 X106.259 Y146.045 E.03127
G1 X105.53 Y145.187 E.03343
G1 X105.017 Y144.241 E.03195
G1 X104.676 Y143.128 E.03456
G1 X104.545 Y141.822 E.03897
G1 X104.543 Y112 E.88545
G1 X105.233 Y110.333 E.05357
G1 X107.741 Y107.826 E.10529
M204 S1000
; printing object Front v246 id:0 copy 0
;WIPE_START
G1 F8640
G1 X108.333 Y107.233 E-.19348
G1 X110 Y106.543 E-.41659
G1 X110.823 Y106.543 E-.18993
;WIPE_END
G1 Z.6 F720
G1 X108.535 Y143.893 F10800
G1 Z.2 F720
G1 E.8 F2100
M204 S800
;TYPE:Perimeter
;WIDTH:0.399999
G1 F1200
G1 X108.181 Y143.538 E.01489
G1 X107.912 Y143.086 E.01562
G1 X107.739 Y142.547 E.01681
G1 X107.658 Y141.723 E.02458
G1 X107.657 Y112.313 E.87322
G1 X110.313 Y109.657 E.11152
G1 X139.687 Y109.657 E.87215
G1 X142.343 Y112.313 E.11152
G1 X142.339 Y140.989 E.85143
G1 X142.318 Y142.059 E.03178
G1 X142.218 Y142.693 E.01906
G1 X142.045 Y143.159 E.01476
G1 X141.734 Y143.64 E.01701
G1 X141.365 Y143.968 E.01466
G1 X140.937 Y144.184 E.01423
G1 X140.513 Y144.289 E.01297
G1 X139.873 Y144.327 E.01904
G1 X110.025 Y144.326 E.88622
G1 X109.321 Y144.258 E.021
G1 X108.952 Y144.14 E.0115
G1 X108.587 Y143.924 E.01259
M204 S1000
G1 X108.314 Y144.177 F10800
M204 S800
;TYPE:External perimeter
G1 F1200
G1 X107.897 Y143.758 E.01755
G1 X107.585 Y143.234 E.01811
G1 X107.387 Y142.62 E.01915
G1 X107.301 Y141.74 E.02625
G1 X107.3 Y112.165 E.87812
G1 X110.165 Y109.3 E.1203
G1 X139.835 Y109.3 E.88094
G1 X142.7 Y112.165 E.1203
G1 X142.696 Y141.723 E.87761
G1 X142.646 Y142.352 E.01873
G1 X142.535 Y142.883 E.01611
G1 X142.274 Y143.508 E.02011
G1 X142 Y143.882 E.01377
G1 X141.567 Y144.266 E.01718
G1 X141.062 Y144.521 E.0168
G1 X140.566 Y144.644 E.01517
G1 X139.884 Y144.684 E.02028
G1 X110.008 Y144.683 E.88706
G1 X109.249 Y144.61 E.02264
G1 X108.805 Y144.468 E.01384
G1 X108.366 Y144.208 E.01515
M204 S1000
G1 X108.373 Y143.782 F10800
;WIPE_START
G1 F8640
G1 X107.897 Y143.758 E-.15008
G1 X107.585 Y143.234 E-.14082
G1 X107.387 Y142.62 E-.14896
G1 X107.301 Y141.74 E-.20416
G1 X107.301 Y141.064 E-.15598
;WIPE_END
G1 Z.6 F720
G1 X112.395 Y140.034 F10800
G1 Z.2 F720
G1 E.8 F2100
M204 S800
;TYPE:Perimeter
G1 F1200
G1 X112.204 Y139.981 E.00589
G1 X112.01 Y139.781 E.00827
G1 X111.943 Y139.521 E.00797
G1 X111.943 Y114.479 E.74353
G1 X111.996 Y114.247 E.00707
G1 X112.171 Y114.04 E.00805
G1 X112.247 Y113.996 E.00261
G1 X112.479 Y113.943 E.00707
G1 X137.521 Y113.943 E.74353
G1 X137.753 Y113.996 E.00707
G1 X137.96 Y114.171 E.00805
G1 X138.043 Y114.358 E.00607
G1 X138.057 Y114.479 E.00362
G1 X138.057 Y139.522 E.74356
G1 X137.982 Y139.795 E.00841
G1 X137.797 Y139.981 E.00779
G1 X137.521 Y140.057 E.0085
G1 X112.453 Y140.05 E.7443
M204 S1000
G1 X112.479 Y139.7 F10800
M204 S800
;TYPE:External perimeter
G1 F1200
G1 X112.347 Y139.642 E.00428
G1 X112.3 Y139.521 E.00385
G1 X112.3 Y114.479 E.74353
G1 X112.352 Y114.352 E.00407
G1 X112.401 Y114.318 E.00177
G1 X112.479 Y114.3 E.00238
G1 X137.521 Y114.3 E.74353
G1 X137.648 Y114.352 E.00407
M73 Q0 S82
G1 X137.7 Y114.479 E.00407
G1 X137.7 Y139.521 E.74353
G1 X137.648 Y139.647 E.00405
G1 X137.521 Y139.7 E.00409
G1 X112.539 Y139.7 E.74175
M204 S1000
G1 X112.375 Y139.8 F10800
;WIPE_START
G1 F8640
G1 X112.347 Y139.642 E-.04631
G1 X112.3 Y139.521 E-.02997
G1 X112.3 Y136.387 E-.72372
;WIPE_END
G1 Z.6 F720
G1 X139.422 Y109.746 F10800
G1 Z.2 F720
G1 E.8 F2100
M204 S800
;TYPE:Solid infill
;WIDTH:0.40023
G1 F1200
G1 X142.093 Y112.417 E.11223
G1 X142.093 Y112.922 E.015
G1 X139.078 Y109.907 E.12668
G1 X138.572 Y109.907 E.01503
G1 X142.093 Y113.427 E.14792
G1 X142.093 Y113.933 E.01503
G1 X138.067 Y109.907 E.16916
G1 X137.562 Y109.907 E.015
G1 X142.093 Y114.438 E.19038
G1 X142.093 Y114.943 E.015
G1 X137.057 Y109.907 E.2116
G1 X136.551 Y109.907 E.01503
G1 X142.093 Y115.448 E.23284
G1 X142.092 Y115.954 E.01503
G1 X136.046 Y109.907 E.25406
G1 X135.541 Y109.907 E.015
G1 X142.092 Y116.459 E.27527
G1 X142.092 Y116.964 E.015
G1 X135.035 Y109.907 E.29651
G1 X134.53 Y109.907 E.015
G1 X142.092 Y117.469 E.31773
G1 X142.092 Y117.975 E.01503
G1 X134.025 Y109.907 E.33897
G1 X133.519 Y109.907 E.01503
G1 X137.305 Y113.693 E.15908
G1 X136.8 Y113.693 E.015
G1 X133.014 Y109.907 E.15908
G1 X132.509 Y109.907 E.015
G1 X136.295 Y113.693 E.15908
G1 X135.789 Y113.693 E.01503
G1 X132.003 Y109.907 E.15908
G1 X131.498 Y109.907 E.015
G1 X135.284 Y113.693 E.15908
G1 X134.779 Y113.693 E.015
G1 X130.993 Y109.907 E.15908
G1 X130.487 Y109.907 E.01503
G1 X134.273 Y113.693 E.15908
G1 X133.768 Y113.693 E.015
G1 X129.982 Y109.907 E.15908
G1 X129.477 Y109.907 E.015
G1 X133.263 Y113.693 E.15908
G1 X132.757 Y113.693 E.01503
G1 X128.972 Y109.907 E.15906
G1 X128.466 Y109.907 E.01503
G1 X132.252 Y113.693 E.15908
G1 X131.747 Y113.693 E.015
G1 X127.961 Y109.907 E.15908
G1 X127.456 Y109.907 E.015
G1 X131.242 Y113.693 E.15908
G1 X130.736 Y113.693 E.01503
G1 X126.95 Y109.907 E.15908
G1 X126.445 Y109.907 E.015
M73 P1 R81
M73 Q1 S82
G1 X130.231 Y113.693 E.15908
G1 X129.726 Y113.693 E.015
G1 X125.94 Y109.907 E.15908
G1 X125.434 Y109.907 E.01503
G1 X129.22 Y113.693 E.15908
G1 X128.715 Y113.693 E.015
G1 X124.929 Y109.907 E.15908
G1 X124.424 Y109.907 E.015
G1 X128.21 Y113.693 E.15908
G1 X127.704 Y113.693 E.01503
G1 X123.918 Y109.907 E.15908
G1 X123.413 Y109.907 E.015
G1 X127.199 Y113.693 E.15908
G1 X126.694 Y113.693 E.015
G1 X122.908 Y109.907 E.15908
G1 X122.402 Y109.907 E.01503
G1 X126.188 Y113.693 E.15908
G1 X125.683 Y113.693 E.015
G1 X121.897 Y109.907 E.15908
G1 X121.392 Y109.907 E.015
G1 X125.178 Y113.693 E.15908
G1 X124.672 Y113.693 E.01503
G1 X120.887 Y109.907 E.15906
G1 X120.381 Y109.907 E.01503
G1 X124.167 Y113.693 E.15908
G1 X123.662 Y113.693 E.015
G1 X119.876 Y109.907 E.15908
G1 X119.371 Y109.907 E.015
G1 X123.157 Y113.693 E.15908
G1 X122.651 Y113.693 E.01503
G1 X118.865 Y109.907 E.15908
G1 X118.36 Y109.907 E.015
G1 X122.146 Y113.693 E.15908
G1 X121.641 Y113.693 E.015
G1 X117.855 Y109.907 E.15908
G1 X117.349 Y109.907 E.01503
G1 X121.135 Y113.693 E.15908
G1 X120.63 Y113.693 E.015
G1 X116.844 Y109.907 E.15908
G1 X116.339 Y109.907 E.015
G1 X120.125 Y113.693 E.15908
G1 X119.619 Y113.693 E.01503
G1 X115.833 Y109.907 E.15908
G1 X115.328 Y109.907 E.015
G1 X119.114 Y113.693 E.15908
G1 X118.609 Y113.693 E.015
G1 X114.823 Y109.907 E.15908
G1 X114.317 Y109.907 E.01503
G1 X118.103 Y113.693 E.15908
G1 X117.598 Y113.693 E.015
G1 X113.812 Y109.907 E.15908
G1 X113.307 Y109.907 E.015
G1 X117.093 Y113.693 E.15908
G1 X116.587 Y113.693 E.01503
G1 X112.802 Y109.907 E.15906
G1 X112.296 Y109.907 E.01503
G1 X116.082 Y113.693 E.15908
G1 X115.577 Y113.693 E.015
G1 X111.791 Y109.907 E.15908
G1 X111.286 Y109.907 E.015
G1 X115.072 Y113.693 E.15908
G1 X114.566 Y113.693 E.01503
G1 X110.78 Y109.907 E.15908
G1 X110.417 Y109.907 E.01078
G1 X110.346 Y109.978 E.00298
G1 X114.061 Y113.693 E.15609
G1 X113.556 Y113.693 E.015
G1 X110.093 Y110.231 E.14548
G1 X109.841 Y110.483 E.01059
G1 X113.05 Y113.693 E.13485
G1 X112.545 Y113.693 E.015
G1 X109.588 Y110.736 E.12424
G1 X109.335 Y110.989 E.01063
G1 X112.125 Y113.779 E.11723
G1 X111.922 Y113.922 E.00738
G1 X111.857 Y114.015 E.00337
G1 X109.083 Y111.241 E.11655
G1 X108.83 Y111.494 E.01063
G1 X111.705 Y114.369 E.1208
G1 X111.693 Y114.862 E.01465
G1 X108.577 Y111.746 E.13092
G1 X108.325 Y111.999 E.01061
G1 X111.693 Y115.368 E.14153
G1 X111.693 Y115.873 E.015
G1 X108.072 Y112.252 E.15214
G1 X107.907 Y112.417 E.00693
G1 X107.907 Y112.592 E.0052
G1 X111.693 Y116.378 E.15908
G1 X111.693 Y116.883 E.015
G1 X107.907 Y113.098 E.15906
G1 X107.907 Y113.603 E.015
G1 X111.693 Y117.389 E.15908
G1 X111.693 Y117.894 E.015
G1 X107.907 Y114.108 E.15908
G1 X107.907 Y114.614 E.01503
G1 X111.693 Y118.399 E.15906
G1 X111.693 Y118.905 E.01503
G1 X107.907 Y115.119 E.15908
G1 X107.907 Y115.624 E.015
G1 X111.693 Y119.41 E.15908
G1 X111.693 Y119.915 E.015
G1 X107.907 Y116.13 E.15906
G1 X107.907 Y116.635 E.015
G1 X111.693 Y120.421 E.15908
G1 X111.693 Y120.926 E.015
G1 X107.907 Y117.14 E.15908
G1 X107.907 Y117.646 E.01503
G1 X111.693 Y121.431 E.15906
G1 X111.693 Y121.937 E.01503
G1 X107.907 Y118.151 E.15908
G1 X107.907 Y118.656 E.015
G1 X111.693 Y122.442 E.15908
G1 X111.693 Y122.947 E.015
G1 X107.907 Y119.162 E.15906
G1 X107.907 Y119.667 E.015
G1 X111.693 Y123.453 E.15908
G1 X111.693 Y123.958 E.015
G1 X107.907 Y120.172 E.15908
G1 X107.907 Y120.678 E.01503
G1 X111.693 Y124.463 E.15906
G1 X111.693 Y124.968 E.015
G1 X107.907 Y121.183 E.15906
G1 X107.907 Y121.688 E.015
G1 X111.693 Y125.474 E.15908
G1 X111.693 Y125.979 E.015
G1 X107.907 Y122.194 E.15906
G1 X107.908 Y122.699 E.015
G1 X111.693 Y126.484 E.15903
G1 X111.693 Y126.99 E.01503
G1 X107.908 Y123.204 E.15906
G1 X107.908 Y123.71 E.01503
G1 X111.693 Y127.495 E.15903
G1 X111.693 Y128 E.015
G1 X107.908 Y124.215 E.15903
G1 X107.908 Y124.72 E.015
G1 X111.693 Y128.506 E.15906
G1 X111.693 Y129.011 E.015
G1 X107.908 Y125.226 E.15903
G1 X107.908 Y125.731 E.015
G1 X111.693 Y129.516 E.15903
G1 X111.693 Y130.022 E.01503
G1 X107.908 Y126.236 E.15906
G1 X107.908 Y126.742 E.01503
G1 X111.693 Y130.527 E.15903
G1 X111.693 Y131.032 E.015
G1 X107.908 Y127.247 E.15903
G1 X107.908 Y127.752 E.015
G1 X111.693 Y131.538 E.15906
G1 X111.693 Y132.043 E.015
G1 X107.908 Y128.258 E.15903
G1 X107.908 Y128.763 E.015
G1 X111.693 Y132.548 E.15903
G1 X111.693 Y133.053 E.015
G1 X107.908 Y129.268 E.15903
G1 X107.908 Y129.774 E.01503
G1 X111.693 Y133.559 E.15903
G1 X111.693 Y134.064 E.015
G1 X107.908 Y130.279 E.15903
G1 X107.908 Y130.784 E.015
G1 X111.693 Y134.569 E.15903
G1 X111.693 Y135.075 E.01503
G1 X107.908 Y131.29 E.15903
G1 X107.908 Y131.795 E.015
G1 X111.693 Y135.58 E.15903
G1 X111.693 Y136.085 E.015
G1 X107.908 Y132.3 E.15903
G1 X107.908 Y132.806 E.01503
G1 X111.693 Y136.591 E.15903
G1 X111.693 Y137.096 E.015
G1 X107.908 Y133.311 E.15903
G1 X107.908 Y133.816 E.015
G1 X111.693 Y137.601 E.15903
G1 X111.693 Y138.107 E.01503
G1 X107.908 Y134.322 E.15903
G1 X107.908 Y134.827 E.015
G1 X111.693 Y138.612 E.15903
G1 X111.693 Y139.117 E.015
G1 X107.747 Y135.172 E.16578
M204 S1000
;WIPE_START
G1 F8640
G1 X110.197 Y137.622 E-.8
;WIPE_END
G1 Z.6 F720
G1 X138.146 Y114.534 F10800
G1 Z.2 F720
G1 E.8 F2100
M204 S800
G1 F1200
G1 X142.092 Y118.48 E.1658
G1 X142.092 Y118.985 E.015
G1 X138.307 Y115.2 E.15903
G1 X138.307 Y115.705 E.015
G1 X142.092 Y119.49 E.15903
G1 X142.092 Y119.996 E.01503
G1 X138.307 Y116.211 E.15903
G1 X138.307 Y116.716 E.015
G1 X142.092 Y120.501 E.15903
G1 X142.092 Y121.006 E.015
G1 X138.307 Y117.221 E.15903
G1 X138.307 Y117.727 E.01503
G1 X142.092 Y121.511 E.15901
G1 X142.092 Y122.017 E.01503
G1 X138.307 Y118.232 E.15903
G1 X138.307 Y118.737 E.015
G1 X142.092 Y122.522 E.15903
G1 X142.092 Y123.027 E.015
G1 X138.307 Y119.243 E.15901
G1 X138.307 Y119.748 E.015
G1 X142.091 Y123.532 E.15899
G1 X142.091 Y124.038 E.01503
G1 X138.307 Y120.253 E.15901
G1 X138.307 Y120.758 E.015
G1 X142.091 Y124.543 E.15901
G1 X142.091 Y125.048 E.015
G1 X138.307 Y121.264 E.15899
G1 X138.307 Y121.769 E.015
G1 X142.091 Y125.553 E.15899
G1 X142.091 Y126.059 E.01503
G1 X138.307 Y122.274 E.15901
G1 X138.307 Y122.78 E.01503
G1 X142.091 Y126.564 E.15899
G1 X142.091 Y127.069 E.015
G1 X138.307 Y123.285 E.15899
G1 X138.307 Y123.79 E.015
G1 X142.091 Y127.574 E.15899
G1 X142.091 Y128.08 E.01503
G1 X138.307 Y124.296 E.15899
G1 X138.307 Y124.801 E.015
G1 X142.091 Y128.585 E.15899
G1 X142.091 Y129.09 E.015
G1 X138.307 Y125.306 E.15899
G1 X138.307 Y125.812 E.01503
G1 X142.091 Y129.595 E.15897
G1 X142.091 Y130.101 E.01503
G1 X138.307 Y126.317 E.15899
G1 X138.307 Y126.822 E.015
G1 X142.091 Y130.606 E.15899
G1 X142.09 Y131.111 E.015
G1 X138.307 Y127.328 E.15895
G1 X138.307 Y127.833 E.015
G1 X142.09 Y131.616 E.15895
G1 X142.09 Y132.121 E.015
G1 X138.307 Y128.338 E.15895
G1 X138.307 Y128.843 E.015
G1 X142.09 Y132.627 E.15897
G1 X142.09 Y133.132 E.015
G1 X138.307 Y129.349 E.15895
G1 X138.307 Y129.854 E.015
G1 X142.09 Y133.637 E.15895
G1 X142.09 Y134.142 E.015
G1 X138.307 Y130.359 E.15895
G1 X138.307 Y130.865 E.01503
G1 X142.09 Y134.648 E.15895
G1 X142.09 Y135.153 E.015
G1 X138.307 Y131.37 E.15895
G1 X138.307 Y131.875 E.015
G1 X142.09 Y135.658 E.15895
G1 X142.09 Y136.163 E.015
G1 X138.307 Y132.381 E.15893
G1 X138.307 Y132.886 E.015
G1 X142.09 Y136.669 E.15895
G1 X142.09 Y137.174 E.015
G1 X138.307 Y133.391 E.15895
G1 X138.307 Y133.897 E.01503
G1 X142.09 Y137.679 E.15893
G1 X142.09 Y138.184 E.015
G1 X138.307 Y134.402 E.15893
G1 X138.307 Y134.907 E.015
G1 X142.089 Y138.69 E.15893
G1 X142.089 Y139.195 E.015
G1 X138.307 Y135.413 E.15891
G1 X138.307 Y135.918 E.015
G1 X142.089 Y139.7 E.15891
G1 X142.089 Y140.205 E.015
G1 X138.307 Y136.423 E.15891
G1 X138.307 Y136.928 E.015
G1 X142.089 Y140.711 E.15893
G1 X142.089 Y141.216 E.015
G1 X138.307 Y137.434 E.15891
G1 X138.307 Y137.939 E.015
G1 X142.089 Y141.721 E.15891
G1 X142.053 Y142.19 E.01398
G1 X138.307 Y138.444 E.1574
G1 X138.307 Y138.95 E.01503
G1 X141.978 Y142.621 E.15424
G1 X141.908 Y142.868 E.00763
G1 X141.847 Y142.995 E.00419
G1 X138.307 Y139.455 E.14874
G1 X138.279 Y139.733 E.0083
G1 X138.219 Y139.872 E.0045
G1 X141.662 Y143.315 E.14466
G1 X141.548 Y143.471 E.00574
G1 X141.423 Y143.582 E.00497
G1 X137.988 Y140.147 E.14433
G1 X137.926 Y140.196 E.00235
G1 X137.735 Y140.278 E.00618
G1 X137.629 Y140.293 E.00318
G1 X141.138 Y143.802 E.14744
G1 X140.793 Y143.963 E.01131
G1 X137.138 Y140.307 E.15359
G1 X136.632 Y140.307 E.01503
G1 X140.373 Y144.047 E.15716
G1 X139.895 Y144.075 E.01423
G1 X136.127 Y140.307 E.15832
G1 X135.622 Y140.307 E.015
G1 X139.392 Y144.077 E.1584
G1 X138.886 Y144.077 E.01503
G1 X135.117 Y140.307 E.15838
G1 X134.611 Y140.307 E.01503
G1 X138.381 Y144.077 E.1584
G1 X137.876 Y144.077 E.015
G1 X134.106 Y140.307 E.1584
G1 X133.601 Y140.307 E.015
G1 X137.37 Y144.077 E.15838
G1 X136.865 Y144.077 E.015
G1 X133.095 Y140.307 E.1584
G1 X132.59 Y140.307 E.015
G1 X136.36 Y144.077 E.1584
G1 X135.854 Y144.077 E.01503
G1 X132.085 Y140.307 E.15838
